public/assets/routes_avatar/realEstateTax.svg

<?xml version="1.0" encoding="UTF-8"?>
<svg width="60px" height="60px" viewBox="0 0 60 60" version="1.1" xmlns="http://www.w3.org/2000/svg" xmlns:xlink="http://www.w3.org/1999/xlink">
    <!-- Generator: Sketch 49.3 (51167) - http://www.bohemiancoding.com/sketch -->
    <title>realEstateTax</title>
    <desc>Created with Sketch.</desc>
    <defs>
        <rect id="path-1" x="3.875" y="0" width="24.21875" height="26.1818182" rx="1.92"></rect>
        <rect id="path-2" x="0" y="4" width="24.21875" height="26.1818182" rx="1.92"></rect>
    </defs>
    <g id="icon" stroke="none" stroke-width="1" fill="none" fill-rule="evenodd">
        <g id="realEstateTax">
            <circle id="Oval-Copy" fill="#49A7FF" cx="30" cy="30" r="30"></circle>
            <g id="Group-77" transform="translate(15.000000, 14.000000)">
                <g id="Rectangle-15">
                    <use fill="#49A7FF" fill-rule="evenodd" xlink:href="#path-1"></use>
                    <rect stroke="#FFFFFF" stroke-width="1.5" x="4.625" y="0.75" width="22.71875" height="24.6818182" rx="1.92"></rect>
                </g>
                <g id="Rectangle-15-Copy">
                    <use fill="#49A7FF" fill-rule="evenodd" xlink:href="#path-2"></use>
                    <rect stroke="#FFFFFF" stroke-width="1.5" x="0.75" y="4.75" width="22.71875" height="24.6818182" rx="1.92"></rect>
                </g>
                <path d="M6.78591127,8.72727273 L18.125,8.72727273 C18.5392136,8.72727273 18.875,9.06305916 18.875,9.47727273 C18.875,9.89148629 18.5392136,10.2272727 18.125,10.2272727 L6.81221055,10.2272727 C6.55624253,10.6881274 6.06454214,11 5.5,11 C4.67157288,11 4,10.3284271 4,9.5 C4,8.67157288 4.67157288,8 5.5,8 C6.04577762,8 6.52347532,8.29148485 6.78591127,8.72727273 Z" id="Combined-Shape" fill="#FFFFFF"></path>
                <path d="M6.78591127,14.2272727 L18.125,14.2272727 C18.5392136,14.2272727 18.875,14.5630592 18.875,14.9772727 C18.875,15.3914863 18.5392136,15.7272727 18.125,15.7272727 L6.81221055,15.7272727 C6.55624253,16.1881274 6.06454214,16.5 5.5,16.5 C4.67157288,16.5 4,15.8284271 4,15 C4,14.1715729 4.67157288,13.5 5.5,13.5 C6.04577762,13.5 6.52347532,13.7914848 6.78591127,14.2272727 Z" id="Combined-Shape-Copy-2" fill="#FFFFFF"></path>
                <path d="M6.78591127,19.7272727 L14.25,19.7272727 C14.6642136,19.7272727 15,20.0630592 15,20.4772727 C15,20.8914863 14.6642136,21.2272727 14.25,21.2272727 L6.81221055,21.2272727 C6.55624253,21.6881274 6.06454214,22 5.5,22 C4.67157288,22 4,21.3284271 4,20.5 C4,19.6715729 4.67157288,19 5.5,19 C6.04577762,19 6.52347532,19.2914848 6.78591127,19.7272727 Z" id="Combined-Shape-Copy-4" fill="#FFFFFF"></path>
                <ellipse id="Oval-9" fill="#49A7FF" cx="23.734375" cy="24.7272727" rx="7.265625" ry="7.27272727"></ellipse>
                <ellipse id="Oval-9" stroke="#FFFFFF" stroke-width="1.2" fill="#49A7FF" cx="23.8125" cy="24.8181818" rx="5.8125" ry="5.81818182"></ellipse>
                <path d="M5.07848454,23.7413793 L5.54939176,23.7413793 L5.54939176,23 L6.01106551,23 L6.01106551,23.7413793 L6.46350579,23.7413793 L6.46350579,24.1681034 L6.01106551,24.1681034 L6.01106551,24.9051724 C6.15880111,24.8448276 6.30653671,24.7758621 6.44965558,24.7025862 L6.44965558,25.1336207 C6.30191998,25.2025862 6.15880111,25.2715517 6.01106551,25.3318966 L6.01106551,26.487069 C6.01106551,26.7801724 5.85871318,26.9310345 5.55862524,26.9310345 L5.17081929,26.9310345 L5.06925106,26.5172414 C5.1846695,26.5344828 5.2954712,26.5474138 5.40165616,26.5474138 C5.49860765,26.5474138 5.54939176,26.487069 5.54939176,26.375 L5.54939176,25.5043103 C5.4062729,25.5517241 5.26315404,25.5991379 5.12003518,25.6422414 L5,25.2112069 C5.1846695,25.1724138 5.36472226,25.125 5.54939176,25.0732759 L5.54939176,24.1681034 L5.07848454,24.1681034 L5.07848454,23.7413793 Z M6.57430749,26.8706897 L6.44965558,26.4913793 C6.56045728,26.4525862 6.61585813,26.375 6.61585813,26.262931 L6.61585813,23.4525862 C7.54382236,23.3405172 8.27788363,23.2112069 8.81804192,23.0732759 L9.0996629,23.4482759 C8.87344277,23.5043103 8.61028873,23.5603448 8.31020079,23.6163793 C8.31481753,23.9698276 8.324051,24.2758621 8.34251795,24.5431034 L9.17814744,24.5431034 L9.17814744,24.9741379 L8.37483512,24.9741379 C8.38868533,25.1293103 8.40715228,25.262931 8.42561923,25.375 C8.49025355,25.75 8.56412135,26.0172414 8.64260589,26.1810345 C8.71647369,26.3448276 8.77187454,26.4267241 8.80880844,26.4267241 C8.83650887,26.4267241 8.86420929,26.2112069 8.89652645,25.7844828 L9.29356588,25.987069 C9.20123113,26.6293103 9.062729,26.9525862 8.88729298,26.9525862 C8.73955738,26.9525862 8.5825883,26.8362069 8.42100249,26.612069 C8.25941668,26.387931 8.12553129,26.0301724 8.01472959,25.5474138 C7.97317895,25.3793103 7.94086179,25.1896552 7.91316136,24.9741379 L7.08214861,24.9741379 L7.08214861,26.2974138 C7.17448336,26.262931 7.26220138,26.2241379 7.34991939,26.1853448 L7.42840393,26.5732759 C7.18371684,26.6681034 6.89747911,26.7672414 6.57430749,26.8706897 Z M7.87161073,24.5431034 C7.85314378,24.2844828 7.83929356,24 7.83929356,23.6939655 C7.60383995,23.7284483 7.34991939,23.762931 7.08214861,23.7974138 L7.08214861,24.5431034 L7.87161073,24.5431034 Z M7.77465924,25.987069 C8.00087938,26.2801724 8.1763154,26.5431034 8.29635058,26.7672414 L7.93624505,27 C7.81620988,26.762931 7.65000733,26.5 7.44225414,26.2068966 L7.77465924,25.987069 Z M14,23.3448276 L14,26.8448276 L13.5337095,26.8448276 L13.5337095,26.5818966 L12.2641067,26.5818966 L12.2641067,26.8448276 L11.7978162,26.8448276 L11.7978162,23.3448276 L14,23.3448276 Z M12.2641067,26.1551724 L13.5337095,26.1551724 L13.5337095,23.7672414 L12.2641067,23.7672414 L12.2641067,26.1551724 Z M11.5946798,24.6681034 L11.5946798,25.0991379 C11.4377107,25.1724138 11.2761249,25.2413793 11.1145391,25.3060345 L11.1145391,26.4956897 C11.1145391,26.7931034 10.95757,26.9439655 10.6482486,26.9439655 L10.1727246,26.9439655 L10.0665396,26.5215517 C10.2096585,26.5387931 10.3481606,26.5474138 10.482046,26.5474138 C10.5928477,26.5474138 10.6482486,26.4913793 10.6482486,26.387931 L10.6482486,25.4784483 C10.4681958,25.5387931 10.2835263,25.5948276 10.0988568,25.6508621 L9.98343837,25.2198276 C10.2096585,25.1767241 10.4312619,25.1206897 10.6482486,25.0517241 L10.6482486,24.1724138 L10.0480727,24.1724138 L10.0480727,23.737069 L10.6482486,23.737069 L10.6482486,23.012931 L11.1145391,23.012931 L11.1145391,23.737069 L11.6131467,23.737069 L11.6131467,24.1724138 L11.1145391,24.1724138 L11.1145391,24.8836207 C11.2807416,24.8146552 11.4377107,24.7456897 11.5946798,24.6681034 Z" id="抵扣" fill="#FFFFFF"></path>
                <g id="Group-75" transform="translate(21.000000, 22.000000)" fill="#FFFFFF" fill-rule="nonzero">
                    <path d="M6.23542628,1.99265703 L3.99906023,1.2351691 C3.99154163,1.23285026 3.98402303,1.23053142 3.97650443,1.22898553 L3.97650443,0.400386479 C3.97650443,0.179323674 3.78185621,0 3.54293178,0 C3.51703438,0 3.49030158,0.00386473436 3.46523958,0.0115942031 L0.172927819,1.0009662 C0.0693382075,1.03188407 0,1.12077296 0,1.22125606 L0,5.99961362 C0,6.22067642 0.194648221,6.4000001 0.433572647,6.4000001 L5.96308585,6.4000001 C6.20451647,6.4000001 6.4000001,6.2137199 6.4000001,5.98415468 L6.4000001,2.21062805 C6.4000001,2.11323675 6.33400349,2.0266667 6.23542628,1.99265703 Z M3.47609978,1.63710147 L3.47609978,5.93623197 L0.502075455,5.93623197 L0.502075455,1.38975847 L3.47609978,0.496231891 L3.47609978,1.63710147 Z M5.89876004,5.93623197 L3.97733983,5.93623197 L3.97733983,1.72212563 L5.89876004,2.3729469 L5.89876004,5.93623197 Z" id="Shape"></path>
                    <path d="M0.971765381,3.29142862 L1.54656191,3.29142862 C1.57817572,3.29142862 1.60404156,3.26057148 1.60404156,3.22285719 L1.60404156,2.81142861 C1.60404156,2.77371433 1.57817572,2.74285718 1.54656191,2.74285718 L0.971765381,2.74285718 C0.940151572,2.74285718 0.914285728,2.77371433 0.914285728,2.81142861 L0.914285728,3.22285719 C0.914285728,3.26057148 0.940151572,3.29142862 0.971765381,3.29142862 Z M2.06387878,3.29142862 L2.63867531,3.29142862 C2.67028912,3.29142862 2.69615497,3.26057148 2.69615497,3.22285719 L2.69615497,2.81142861 C2.69615497,2.77371433 2.67028912,2.74285718 2.63867531,2.74285718 L2.06387878,2.74285718 C2.03226498,2.74285718 2.00639913,2.77371433 2.00639913,2.81142861 L2.00639913,3.22285719 C2.00639913,3.26057148 2.03226498,3.29142862 2.06387878,3.29142862 Z M0.971765381,4.38857149 L1.54656191,4.38857149 C1.57817572,4.38857149 1.60404156,4.35771435 1.60404156,4.32000006 L1.60404156,3.90857149 C1.60404156,3.8708572 1.57817572,3.84000006 1.54656191,3.84000006 L0.971765381,3.84000006 C0.940151572,3.84000006 0.914285728,3.8708572 0.914285728,3.90857149 L0.914285728,4.32000006 C0.914285728,4.35771435 0.940151572,4.38857149 0.971765381,4.38857149 Z M2.06387878,4.38857149 L2.63867531,4.38857149 C2.67028912,4.38857149 2.69615497,4.35771435 2.69615497,4.32000006 L2.69615497,3.90857149 C2.69615497,3.8708572 2.67028912,3.84000006 2.63867531,3.84000006 L2.06387878,3.84000006 C2.03226498,3.84000006 2.00639913,3.8708572 2.00639913,3.90857149 L2.00639913,4.32000006 C2.00639913,4.35771435 2.03226498,4.38857149 2.06387878,4.38857149 Z M0.971765381,5.48571437 L1.54656191,5.48571437 C1.57817572,5.48571437 1.60404156,5.45485722 1.60404156,5.41714294 L1.60404156,5.00571436 C1.60404156,4.96800007 1.57817572,4.93714293 1.54656191,4.93714293 L0.971765381,4.93714293 C0.940151572,4.93714293 0.914285728,4.96800007 0.914285728,5.00571436 L0.914285728,5.41714294 C0.914285728,5.45485722 0.940151572,5.48571437 0.971765381,5.48571437 Z M2.06387878,5.48571437 L2.63867531,5.48571437 C2.67028912,5.48571437 2.69615497,5.45485722 2.69615497,5.41714294 L2.69615497,5.00571436 C2.69615497,4.96800007 2.67028912,4.93714293 2.63867531,4.93714293 L2.06387878,4.93714293 C2.03226498,4.93714293 2.00639913,4.96800007 2.00639913,5.00571436 L2.00639913,5.41714294 C2.00639913,5.45485722 2.03226498,5.48571437 2.06387878,5.48571437 Z M4.16907107,4.38857149 L4.51394899,4.38857149 C4.5455628,4.38857149 4.57142864,4.35771435 4.57142864,4.32000006 L4.57142864,3.90857149 C4.57142864,3.8708572 4.5455628,3.84000006 4.51394899,3.84000006 L4.16907107,3.84000006 C4.13745726,3.84000006 4.11159142,3.8708572 4.11159142,3.90857149 L4.11159142,4.32000006 C4.11159142,4.35771435 4.13745726,4.38857149 4.16907107,4.38857149 Z M4.16907107,5.48571437 L4.51394899,5.48571437 C4.5455628,5.48571437 4.57142864,5.45485722 4.57142864,5.41714294 L4.57142864,5.00571436 C4.57142864,4.96800007 4.5455628,4.93714293 4.51394899,4.93714293 L4.16907107,4.93714293 C4.13745726,4.93714293 4.11159142,4.96800007 4.11159142,5.00571436 L4.11159142,5.41714294 C4.11159142,5.45485722 4.13745726,5.48571437 4.16907107,5.48571437 Z" id="Shape"></path>
                </g>
            </g>
        </g>
    </g>
</svg>

<svg width="60" height="60" xmlns="http://www.w3.org/2000/svg" xmlns:xlink="http://www.w3.org/1999/xlink"><defs><rect id="a" x="3.875" y="0" width="24.219" height="26.182" rx="1.92"/><rect id="b" x="0" y="4" width="24.219" height="26.182" rx="1.92"/></defs><g fill="none" fill-rule="evenodd"><circle fill="#49A7FF" cx="30" cy="30" r="30"/><g transform="translate(15 14)"><use fill="#49A7FF" xlink:href="#a"/><rect stroke="#FFF" stroke-width="1.5" x="4.625" y=".75" width="22.719" height="24.682" rx="1.92"/><use fill="#49A7FF" xlink:href="#b"/><rect stroke="#FFF" stroke-width="1.5" x=".75" y="4.75" width="22.719" height="24.682" rx="1.92"/><path d="M6.786 8.727h11.339a.75.75 0 1 1 0 1.5H6.812a1.5 1.5 0 1 1-.026-1.5zM6.786 14.227h11.339a.75.75 0 0 1 0 1.5H6.812a1.5 1.5 0 1 1-.026-1.5zM6.786 19.727h7.464a.75.75 0 0 1 0 1.5H6.812a1.5 1.5 0 1 1-.026-1.5z" fill="#FFF"/><ellipse fill="#49A7FF" cx="23.734" cy="24.727" rx="7.266" ry="7.273"/><ellipse stroke="#FFF" stroke-width="1.2" fill="#49A7FF" cx="23.813" cy="24.818" rx="5.813" ry="5.818"/><path d="M5.078 23.741h.471V23h.462v.741h.453v.427H6.01v.737c.148-.06.296-.13.439-.202v.43c-.148.07-.291.139-.439.199v1.155c0 .293-.152.444-.452.444H5.17l-.102-.414c.116.017.226.03.333.03.097 0 .147-.06.147-.172v-.87a16.52 16.52 0 0 1-.429.137l-.12-.43a8.53 8.53 0 0 0 .55-.139v-.905h-.472v-.427zm1.496 3.13l-.124-.38c.11-.038.166-.116.166-.228v-2.81c.928-.112 1.662-.242 2.202-.38l.282.375c-.227.056-.49.112-.79.168.005.354.014.66.033.927h.835v.431h-.803c.014.155.032.289.05.401.065.375.14.642.218.806.073.164.129.246.166.246.028 0 .055-.216.088-.643l.397.203c-.093.642-.231.966-.407.966-.147 0-.304-.117-.466-.34-.162-.225-.295-.583-.406-1.066a5.144 5.144 0 0 1-.102-.573h-.83v1.323c.091-.034.18-.073.267-.112l.078.388c-.244.095-.53.194-.854.298zm1.298-2.328a11.866 11.866 0 0 1-.033-.849c-.235.034-.49.069-.757.103v.746h.79zm-.097 1.444c.226.293.401.556.521.78l-.36.233c-.12-.237-.286-.5-.494-.793l.333-.22zM14 23.345v3.5h-.466v-.263h-1.27v.263h-.466v-3.5H14zm-1.736 2.81h1.27v-2.388h-1.27v2.388zm-.67-1.487v.431a9.353 9.353 0 0 1-.48.207v1.19c0 .297-.156.448-.466.448h-.475l-.106-.422c.143.017.281.025.415.025.11 0 .166-.056.166-.16v-.909c-.18.06-.364.117-.55.173l-.115-.431c.227-.043.448-.1.665-.168v-.88h-.6v-.435h.6v-.724h.467v.724h.498v.435h-.498v.712a7.93 7.93 0 0 0 .48-.216z" fill="#FFF"/><g fill="#FFF" fill-rule="nonzero"><path d="M27.235 23.993L25 23.235l-.022-.006V22.4c0-.22-.195-.4-.434-.4a.266.266 0 0 0-.078.012L21.173 23a.233.233 0 0 0-.173.22V28c0 .22.195.4.434.4h5.53a.427.427 0 0 0 .436-.416v-3.773a.235.235 0 0 0-.165-.218zm-2.759-.356v4.3h-2.974V23.39l2.974-.894v1.141zm2.423 4.3h-1.922v-4.215l1.922.65v3.564z"/><path d="M21.972 25.291h.575c.031 0 .057-.03.057-.068v-.412c0-.037-.026-.068-.057-.068h-.575c-.032 0-.058.03-.058.068v.412c0 .038.026.068.058.068zm1.092 0h.575c.031 0 .057-.03.057-.068v-.412c0-.037-.026-.068-.057-.068h-.575c-.032 0-.058.03-.058.068v.412c0 .038.026.068.058.068zm-1.092 1.098h.575c.031 0 .057-.031.057-.069v-.411c0-.038-.026-.069-.057-.069h-.575c-.032 0-.058.03-.058.069v.411c0 .038.026.069.058.069zm1.092 0h.575c.031 0 .057-.031.057-.069v-.411c0-.038-.026-.069-.057-.069h-.575c-.032 0-.058.03-.058.069v.411c0 .038.026.069.058.069zm-1.092 1.097h.575c.031 0 .057-.031.057-.069v-.411c0-.038-.026-.069-.057-.069h-.575c-.032 0-.058.031-.058.069v.411c0 .038.026.069.058.069zm1.092 0h.575c.031 0 .057-.031.057-.069v-.411c0-.038-.026-.069-.057-.069h-.575c-.032 0-.058.031-.058.069v.411c0 .038.026.069.058.069zm2.105-1.097h.345c.032 0 .057-.031.057-.069v-.411c0-.038-.025-.069-.057-.069h-.345c-.032 0-.057.03-.057.069v.411c0 .038.025.069.057.069zm0 1.097h.345c.032 0 .057-.031.057-.069v-.411c0-.038-.025-.069-.057-.069h-.345c-.032 0-.057.031-.057.069v.411c0 .038.025.069.057.069z"/></g></g></g></svg>
